X: 10933
T: Drumline Castle
R: reel
M: 4/4
K: Dmajor
|:ABc|:d2 AG FD D2|E3F GABc|d2 ec dAFA|BFAF E2 (3ABc|
d2 AG FD D2|E3F GABc|d2 ec dAFA|1 B2 AG FD D2:|2 B2 AG FD (3ABc||
|:d2 fd Adfa|bfaf ed (3ABc|d2 ec dAFA|BFAF E2 (3ABc|
d2 fd Adfa|bfaf ed (3ABc|d2 ec dAFA|1 B2 AG FD (3ABc:|2 B2 AG FD D2||

